icon-themes/breeze_svg/cmd/sc_tabdialog.svg

<svg viewBox="0 0 16 16" xmlns="http://www.w3.org/2000/svg"><path d="m2 2v1h12v-1zm1.9726562 2v5.0625l-1.7148437-1.625-.7578125.71875 2.7695312 2.65625.1972657.1875h.0664062l.1972657-.1875 2.7695312-2.65625-.7578125-.71875-1.7148437 1.625v-5.0625zm7.4941408 0-.197266.1875-2.769531 2.65625.7578125.71875 1.7148435-1.625v5.0625h1.054688v-5.0625l1.714844 1.625.757812-.71875-2.769531-2.65625-.197266-.1875zm-9.466797 9v1h3v-1z" fill="#4d4d4d"/><path d="m7 12c-.55228 0-1 .44772-1 1s.44772 1 1 1 1-.44772 1-1-.44772-1-1-1zm3 0c-.55228 0-1 .44772-1 1s.44772 1 1 1 1-.44772 1-1-.44772-1-1-1zm3 0c-.55228 0-1 .44772-1 1s.44772 1 1 1 1-.44772 1-1-.44772-1-1-1z" fill="#f47750"/></svg>

<svg xmlns="http://www.w3.org/2000/svg" viewBox="0 0 16 16">
 <path 
     style="fill:#4d4d4d" 
     d="M 2 2 L 2 3 L 14 3 L 14 2 L 2 2 z M 3.9726562 4 L 3.9726562 9.0625 L 2.2578125 7.4375 L 1.5 8.15625 L 4.2695312 10.8125 L 4.4667969 11 L 4.5332031 11 L 4.7304688 10.8125 L 7.5 8.15625 L 6.7421875 7.4375 L 5.0273438 9.0625 L 5.0273438 4 L 3.9726562 4 z M 11.466797 4 L 11.269531 4.1875 L 8.5 6.84375 L 9.2578125 7.5625 L 10.972656 5.9375 L 10.972656 11 L 12.027344 11 L 12.027344 5.9375 L 13.742188 7.5625 L 14.5 6.84375 L 11.730469 4.1875 L 11.533203 4 L 11.466797 4 z M 2 13 L 2 14 L 5 14 L 5 13 L 2 13 z "
     />
 <path 
     style="fill:#f47750" 
     d="M 7 12 C 6.44772 12 6 12.44772 6 13 C 6 13.55228 6.44772 14 7 14 C 7.55228 14 8 13.55228 8 13 C 8 12.44772 7.55228 12 7 12 z M 10 12 C 9.44772 12 9 12.44772 9 13 C 9 13.55228 9.44772 14 10 14 C 10.55228 14 11 13.55228 11 13 C 11 12.44772 10.55228 12 10 12 z M 13 12 C 12.44772 12 12 12.44772 12 13 C 12 13.55228 12.44772 14 13 14 C 13.55228 14 14 13.55228 14 13 C 14 12.44772 13.55228 12 13 12 z "
     />
 </svg>
